images/plant_nursery.svg

<?xml version="1.0" encoding="UTF-8" standalone="no"?>
<svg xmlns:dc="http://purl.org/dc/elements/1.1/" xmlns:cc="http://creativecommons.org/ns#" xmlns:rdf="http://www.w3.org/1999/02/22-rdf-syntax-ns#" xmlns:svg="http://www.w3.org/2000/svg" xmlns="http://www.w3.org/2000/svg" xmlns:sodipodi="http://sodipodi.sourceforge.net/DTD/sodipodi-0.dtd" xmlns:inkscape="http://www.inkscape.org/namespaces/inkscape" id="Svg" width="64" height="64" version="1.1" sodipodi:docname="plant_nursery.svg" inkscape:version="1.0.1 (3bc2e813f5, 2020-09-07)">
  <defs id="defs21046" />
  <rect style="fill:#000000;fill-opacity:0;stroke-width:0.999999;stroke-linecap:round;stroke-linejoin:round" id="rect25177" width="64" height="64" x="0" y="0" />
  <path id="path23491" style="color:#000000;font-style:normal;font-variant:normal;font-weight:normal;font-stretch:normal;font-size:medium;line-height:normal;font-family:sans-serif;font-variant-ligatures:normal;font-variant-position:normal;font-variant-caps:normal;font-variant-numeric:normal;font-variant-alternates:normal;font-variant-east-asian:normal;font-feature-settings:normal;font-variation-settings:normal;text-indent:0;text-align:start;text-decoration:none;text-decoration-line:none;text-decoration-style:solid;text-decoration-color:#000000;letter-spacing:normal;word-spacing:normal;text-transform:none;writing-mode:lr-tb;direction:ltr;text-orientation:mixed;dominant-baseline:auto;baseline-shift:baseline;text-anchor:start;white-space:normal;shape-padding:0;shape-margin:0;inline-size:0;clip-rule:nonzero;display:inline;overflow:visible;visibility:visible;opacity:1;isolation:auto;mix-blend-mode:normal;color-interpolation:sRGB;color-interpolation-filters:linearRGB;solid-color:#000000;solid-opacity:1;vector-effect:none;fill:#000000;fill-opacity:1;fill-rule:evenodd;stroke:none;stroke-width:0.793749;stroke-linecap:round;stroke-linejoin:round;stroke-miterlimit:4;stroke-dasharray:none;stroke-dashoffset:0;stroke-opacity:1;color-rendering:auto;image-rendering:auto;shape-rendering:auto;text-rendering:auto;enable-background:accumulate;stop-color:#000000;stop-opacity:1" d="M 4.9707031 0.083984375 A 0.39691417 0.39691417 0 0 0 4.6679688 0.26367188 L 1.890625 4.5019531 A 0.39691417 0.39691417 0 0 0 2.2226562 5.1171875 L 4.6035156 5.1171875 L 4.6035156 7.546875 A 0.39687449 0.39687449 0 0 0 5 7.9433594 A 0.39687449 0.39687449 0 0 0 5.3964844 7.546875 L 5.3964844 5.1171875 L 7.7792969 5.1171875 A 0.39691417 0.39691417 0 0 0 8.1113281 4.5019531 L 5.3320312 0.26367188 A 0.39691417 0.39691417 0 0 0 5.0234375 0.083984375 A 0.39691417 0.39691417 0 0 0 4.9707031 0.083984375 z M 26.302734 0.083984375 A 0.39691417 0.39691417 0 0 0 26.001953 0.26367188 L 23.224609 4.5019531 A 0.39691417 0.39691417 0 0 0 23.556641 5.1171875 L 25.9375 5.1171875 L 25.9375 7.546875 A 0.39687449 0.39687449 0 0 0 26.333984 7.9433594 A 0.39687449 0.39687449 0 0 0 26.730469 7.546875 L 26.730469 5.1171875 L 29.111328 5.1171875 A 0.39691417 0.39691417 0 0 0 29.443359 4.5019531 L 26.666016 0.26367188 A 0.39691417 0.39691417 0 0 0 26.355469 0.083984375 A 0.39691417 0.39691417 0 0 0 26.302734 0.083984375 z M 47.636719 0.083984375 A 0.39691417 0.39691417 0 0 0 47.335938 0.26367188 L 44.556641 4.5019531 A 0.39691417 0.39691417 0 0 0 44.888672 5.1171875 L 47.269531 5.1171875 L 47.269531 7.546875 A 0.39687449 0.39687449 0 0 0 47.667969 7.9433594 A 0.39687449 0.39687449 0 0 0 48.064453 7.546875 L 48.064453 5.1171875 L 50.445312 5.1171875 A 0.39691417 0.39691417 0 0 0 50.777344 4.5019531 L 48 0.26367188 A 0.39691417 0.39691417 0 0 0 47.689453 0.083984375 A 0.39691417 0.39691417 0 0 0 47.636719 0.083984375 z M 5 1.2050781 L 7.0429688 4.3222656 L 2.9570312 4.3222656 L 5 1.2050781 z M 26.333984 1.2050781 L 28.376953 4.3222656 L 24.291016 4.3222656 L 26.333984 1.2050781 z M 47.667969 1.2050781 L 49.710938 4.3222656 L 45.625 4.3222656 L 47.667969 1.2050781 z M 15.636719 8.0839844 A 0.39691417 0.39691417 0 0 0 15.335938 8.2636719 L 12.556641 12.501953 A 0.39691417 0.39691417 0 0 0 12.888672 13.117188 L 15.269531 13.117188 L 15.269531 15.546875 A 0.39687449 0.39687449 0 0 0 15.667969 15.943359 A 0.39687449 0.39687449 0 0 0 16.064453 15.546875 L 16.064453 13.117188 L 18.445312 13.117188 A 0.39691417 0.39691417 0 0 0 18.777344 12.501953 L 16 8.2636719 A 0.39691417 0.39691417 0 0 0 15.689453 8.0839844 A 0.39691417 0.39691417 0 0 0 15.636719 8.0839844 z M 36.970703 8.0839844 A 0.39691417 0.39691417 0 0 0 36.667969 8.2636719 L 33.890625 12.501953 A 0.39691417 0.39691417 0 0 0 34.222656 13.117188 L 36.603516 13.117188 L 36.603516 15.546875 A 0.39687449 0.39687449 0 0 0 37 15.943359 A 0.39687449 0.39687449 0 0 0 37.396484 15.546875 L 37.396484 13.117188 L 39.779297 13.117188 A 0.39691417 0.39691417 0 0 0 40.111328 12.501953 L 37.332031 8.2636719 A 0.39691417 0.39691417 0 0 0 37.023438 8.0839844 A 0.39691417 0.39691417 0 0 0 36.970703 8.0839844 z M 58.302734 8.0839844 A 0.39691417 0.39691417 0 0 0 58.001953 8.2636719 L 55.224609 12.501953 A 0.39691417 0.39691417 0 0 0 55.556641 13.117188 L 57.9375 13.117188 L 57.9375 15.546875 A 0.39687449 0.39687449 0 0 0 58.333984 15.943359 A 0.39687449 0.39687449 0 0 0 58.730469 15.546875 L 58.730469 13.117188 L 61.111328 13.117188 A 0.39691417 0.39691417 0 0 0 61.443359 12.501953 L 58.666016 8.2636719 A 0.39691417 0.39691417 0 0 0 58.355469 8.0839844 A 0.39691417 0.39691417 0 0 0 58.302734 8.0839844 z M 15.667969 9.2050781 L 17.710938 12.322266 L 13.625 12.322266 L 15.667969 9.2050781 z M 37 9.2050781 L 39.042969 12.322266 L 34.957031 12.322266 L 37 9.2050781 z M 58.333984 9.2050781 L 60.376953 12.322266 L 56.291016 12.322266 L 58.333984 9.2050781 z M 4.9707031 16.083984 A 0.39691417 0.39691417 0 0 0 4.6679688 16.263672 L 1.890625 20.501953 A 0.39691417 0.39691417 0 0 0 2.2226562 21.117188 L 4.6035156 21.117188 L 4.6035156 23.546875 A 0.39687449 0.39687449 0 0 0 5 23.943359 A 0.39687449 0.39687449 0 0 0 5.3964844 23.546875 L 5.3964844 21.117188 L 7.7792969 21.117188 A 0.39691417 0.39691417 0 0 0 8.1113281 20.501953 L 5.3320312 16.263672 A 0.39691417 0.39691417 0 0 0 5.0234375 16.083984 A 0.39691417 0.39691417 0 0 0 4.9707031 16.083984 z M 26.302734 16.083984 A 0.39691417 0.39691417 0 0 0 26.001953 16.263672 L 23.224609 20.501953 A 0.39691417 0.39691417 0 0 0 23.556641 21.117188 L 25.9375 21.117188 L 25.9375 23.546875 A 0.39687449 0.39687449 0 0 0 26.333984 23.943359 A 0.39687449 0.39687449 0 0 0 26.730469 23.546875 L 26.730469 21.117188 L 29.111328 21.117188 A 0.39691417 0.39691417 0 0 0 29.443359 20.501953 L 26.666016 16.263672 A 0.39691417 0.39691417 0 0 0 26.355469 16.083984 A 0.39691417 0.39691417 0 0 0 26.302734 16.083984 z M 47.636719 16.083984 A 0.39691417 0.39691417 0 0 0 47.335938 16.263672 L 44.556641 20.501953 A 0.39691417 0.39691417 0 0 0 44.888672 21.117188 L 47.269531 21.117188 L 47.269531 23.546875 A 0.39687449 0.39687449 0 0 0 47.667969 23.943359 A 0.39687449 0.39687449 0 0 0 48.064453 23.546875 L 48.064453 21.117188 L 50.445312 21.117188 A 0.39691417 0.39691417 0 0 0 50.777344 20.501953 L 48 16.263672 A 0.39691417 0.39691417 0 0 0 47.689453 16.083984 A 0.39691417 0.39691417 0 0 0 47.636719 16.083984 z M 5 17.205078 L 7.0429688 20.322266 L 2.9570312 20.322266 L 5 17.205078 z M 26.333984 17.205078 L 28.376953 20.322266 L 24.291016 20.322266 L 26.333984 17.205078 z M 47.667969 17.205078 L 49.710938 20.322266 L 45.625 20.322266 L 47.667969 17.205078 z M 15.636719 24.083984 A 0.39691417 0.39691417 0 0 0 15.335938 24.263672 L 12.556641 28.501953 A 0.39691417 0.39691417 0 0 0 12.888672 29.117188 L 15.269531 29.117188 L 15.269531 31.546875 A 0.39687449 0.39687449 0 0 0 15.667969 31.943359 A 0.39687449 0.39687449 0 0 0 16.064453 31.546875 L 16.064453 29.117188 L 18.445312 29.117188 A 0.39691417 0.39691417 0 0 0 18.777344 28.501953 L 16 24.263672 A 0.39691417 0.39691417 0 0 0 15.689453 24.083984 A 0.39691417 0.39691417 0 0 0 15.636719 24.083984 z M 36.970703 24.083984 A 0.39691417 0.39691417 0 0 0 36.667969 24.263672 L 33.890625 28.501953 A 0.39691417 0.39691417 0 0 0 34.222656 29.117188 L 36.603516 29.117188 L 36.603516 31.546875 A 0.39687449 0.39687449 0 0 0 37 31.943359 A 0.39687449 0.39687449 0 0 0 37.396484 31.546875 L 37.396484 29.117188 L 39.779297 29.117188 A 0.39691417 0.39691417 0 0 0 40.111328 28.501953 L 37.332031 24.263672 A 0.39691417 0.39691417 0 0 0 37.023438 24.083984 A 0.39691417 0.39691417 0 0 0 36.970703 24.083984 z M 58.302734 24.083984 A 0.39691417 0.39691417 0 0 0 58.001953 24.263672 L 55.224609 28.501953 A 0.39691417 0.39691417 0 0 0 55.556641 29.117188 L 57.9375 29.117188 L 57.9375 31.546875 A 0.39687449 0.39687449 0 0 0 58.333984 31.943359 A 0.39687449 0.39687449 0 0 0 58.730469 31.546875 L 58.730469 29.117188 L 61.111328 29.117188 A 0.39691417 0.39691417 0 0 0 61.443359 28.501953 L 58.666016 24.263672 A 0.39691417 0.39691417 0 0 0 58.355469 24.083984 A 0.39691417 0.39691417 0 0 0 58.302734 24.083984 z M 15.667969 25.205078 L 17.710938 28.322266 L 13.625 28.322266 L 15.667969 25.205078 z M 37 25.205078 L 39.042969 28.322266 L 34.957031 28.322266 L 37 25.205078 z M 58.333984 25.205078 L 60.376953 28.322266 L 56.291016 28.322266 L 58.333984 25.205078 z M 4.9707031 32.083984 A 0.39691417 0.39691417 0 0 0 4.6679688 32.263672 L 1.890625 36.501953 A 0.39691417 0.39691417 0 0 0 2.2226562 37.117188 L 4.6035156 37.117188 L 4.6035156 39.546875 A 0.39687449 0.39687449 0 0 0 5 39.943359 A 0.39687449 0.39687449 0 0 0 5.3964844 39.546875 L 5.3964844 37.117188 L 7.7792969 37.117188 A 0.39691417 0.39691417 0 0 0 8.1113281 36.501953 L 5.3320312 32.263672 A 0.39691417 0.39691417 0 0 0 5.0234375 32.083984 A 0.39691417 0.39691417 0 0 0 4.9707031 32.083984 z M 26.302734 32.083984 A 0.39691417 0.39691417 0 0 0 26.001953 32.263672 L 23.224609 36.501953 A 0.39691417 0.39691417 0 0 0 23.556641 37.117188 L 25.9375 37.117188 L 25.9375 39.546875 A 0.39687449 0.39687449 0 0 0 26.333984 39.943359 A 0.39687449 0.39687449 0 0 0 26.730469 39.546875 L 26.730469 37.117188 L 29.111328 37.117188 A 0.39691417 0.39691417 0 0 0 29.443359 36.501953 L 26.666016 32.263672 A 0.39691417 0.39691417 0 0 0 26.355469 32.083984 A 0.39691417 0.39691417 0 0 0 26.302734 32.083984 z M 47.636719 32.083984 A 0.39691417 0.39691417 0 0 0 47.335938 32.263672 L 44.556641 36.501953 A 0.39691417 0.39691417 0 0 0 44.888672 37.117188 L 47.269531 37.117188 L 47.269531 39.546875 A 0.39687449 0.39687449 0 0 0 47.667969 39.943359 A 0.39687449 0.39687449 0 0 0 48.064453 39.546875 L 48.064453 37.117188 L 50.445312 37.117188 A 0.39691417 0.39691417 0 0 0 50.777344 36.501953 L 48 32.263672 A 0.39691417 0.39691417 0 0 0 47.689453 32.083984 A 0.39691417 0.39691417 0 0 0 47.636719 32.083984 z M 5 33.205078 L 7.0429688 36.322266 L 2.9570312 36.322266 L 5 33.205078 z M 26.333984 33.205078 L 28.376953 36.322266 L 24.291016 36.322266 L 26.333984 33.205078 z M 47.667969 33.205078 L 49.710938 36.322266 L 45.625 36.322266 L 47.667969 33.205078 z M 15.636719 40.083984 A 0.39691417 0.39691417 0 0 0 15.335938 40.263672 L 12.556641 44.501953 A 0.39691417 0.39691417 0 0 0 12.888672 45.117188 L 15.269531 45.117188 L 15.269531 47.546875 A 0.39687449 0.39687449 0 0 0 15.667969 47.943359 A 0.39687449 0.39687449 0 0 0 16.064453 47.546875 L 16.064453 45.117188 L 18.445312 45.117188 A 0.39691417 0.39691417 0 0 0 18.777344 44.501953 L 16 40.263672 A 0.39691417 0.39691417 0 0 0 15.689453 40.083984 A 0.39691417 0.39691417 0 0 0 15.636719 40.083984 z M 36.970703 40.083984 A 0.39691417 0.39691417 0 0 0 36.667969 40.263672 L 33.890625 44.501953 A 0.39691417 0.39691417 0 0 0 34.222656 45.117188 L 36.603516 45.117188 L 36.603516 47.546875 A 0.39687449 0.39687449 0 0 0 37 47.943359 A 0.39687449 0.39687449 0 0 0 37.396484 47.546875 L 37.396484 45.117188 L 39.779297 45.117188 A 0.39691417 0.39691417 0 0 0 40.111328 44.501953 L 37.332031 40.263672 A 0.39691417 0.39691417 0 0 0 37.023438 40.083984 A 0.39691417 0.39691417 0 0 0 36.970703 40.083984 z M 58.302734 40.083984 A 0.39691417 0.39691417 0 0 0 58.001953 40.263672 L 55.224609 44.501953 A 0.39691417 0.39691417 0 0 0 55.556641 45.117188 L 57.9375 45.117188 L 57.9375 47.546875 A 0.39687449 0.39687449 0 0 0 58.333984 47.943359 A 0.39687449 0.39687449 0 0 0 58.730469 47.546875 L 58.730469 45.117188 L 61.111328 45.117188 A 0.39691417 0.39691417 0 0 0 61.443359 44.501953 L 58.666016 40.263672 A 0.39691417 0.39691417 0 0 0 58.355469 40.083984 A 0.39691417 0.39691417 0 0 0 58.302734 40.083984 z M 15.667969 41.205078 L 17.710938 44.322266 L 13.625 44.322266 L 15.667969 41.205078 z M 37 41.205078 L 39.042969 44.322266 L 34.957031 44.322266 L 37 41.205078 z M 58.333984 41.205078 L 60.376953 44.322266 L 56.291016 44.322266 L 58.333984 41.205078 z M 4.9707031 48.083984 A 0.39691417 0.39691417 0 0 0 4.6679688 48.263672 L 1.890625 52.501953 A 0.39691417 0.39691417 0 0 0 2.2226562 53.117188 L 4.6035156 53.117188 L 4.6035156 55.546875 A 0.39687449 0.39687449 0 0 0 5 55.943359 A 0.39687449 0.39687449 0 0 0 5.3964844 55.546875 L 5.3964844 53.117188 L 7.7792969 53.117188 A 0.39691417 0.39691417 0 0 0 8.1113281 52.501953 L 5.3320312 48.263672 A 0.39691417 0.39691417 0 0 0 5.0234375 48.083984 A 0.39691417 0.39691417 0 0 0 4.9707031 48.083984 z M 26.302734 48.083984 A 0.39691417 0.39691417 0 0 0 26.001953 48.263672 L 23.224609 52.501953 A 0.39691417 0.39691417 0 0 0 23.556641 53.117188 L 25.9375 53.117188 L 25.9375 55.546875 A 0.39687449 0.39687449 0 0 0 26.333984 55.943359 A 0.39687449 0.39687449 0 0 0 26.730469 55.546875 L 26.730469 53.117188 L 29.111328 53.117188 A 0.39691417 0.39691417 0 0 0 29.443359 52.501953 L 26.666016 48.263672 A 0.39691417 0.39691417 0 0 0 26.355469 48.083984 A 0.39691417 0.39691417 0 0 0 26.302734 48.083984 z M 47.636719 48.083984 A 0.39691417 0.39691417 0 0 0 47.335938 48.263672 L 44.556641 52.501953 A 0.39691417 0.39691417 0 0 0 44.888672 53.117188 L 47.269531 53.117188 L 47.269531 55.546875 A 0.39687449 0.39687449 0 0 0 47.667969 55.943359 A 0.39687449 0.39687449 0 0 0 48.064453 55.546875 L 48.064453 53.117188 L 50.445312 53.117188 A 0.39691417 0.39691417 0 0 0 50.777344 52.501953 L 48 48.263672 A 0.39691417 0.39691417 0 0 0 47.689453 48.083984 A 0.39691417 0.39691417 0 0 0 47.636719 48.083984 z M 5 49.205078 L 7.0429688 52.322266 L 2.9570312 52.322266 L 5 49.205078 z M 26.333984 49.205078 L 28.376953 52.322266 L 24.291016 52.322266 L 26.333984 49.205078 z M 47.667969 49.205078 L 49.710938 52.322266 L 45.625 52.322266 L 47.667969 49.205078 z M 15.636719 56.083984 A 0.39691417 0.39691417 0 0 0 15.335938 56.263672 L 12.556641 60.501953 A 0.39691417 0.39691417 0 0 0 12.888672 61.117188 L 15.269531 61.117188 L 15.269531 63.546875 A 0.39687449 0.39687449 0 0 0 15.667969 63.943359 A 0.39687449 0.39687449 0 0 0 16.064453 63.546875 L 16.064453 61.117188 L 18.445312 61.117188 A 0.39691417 0.39691417 0 0 0 18.777344 60.501953 L 16 56.263672 A 0.39691417 0.39691417 0 0 0 15.689453 56.083984 A 0.39691417 0.39691417 0 0 0 15.636719 56.083984 z M 36.970703 56.083984 A 0.39691417 0.39691417 0 0 0 36.667969 56.263672 L 33.890625 60.501953 A 0.39691417 0.39691417 0 0 0 34.222656 61.117188 L 36.603516 61.117188 L 36.603516 63.546875 A 0.39687449 0.39687449 0 0 0 37 63.943359 A 0.39687449 0.39687449 0 0 0 37.396484 63.546875 L 37.396484 61.117188 L 39.779297 61.117188 A 0.39691417 0.39691417 0 0 0 40.111328 60.501953 L 37.332031 56.263672 A 0.39691417 0.39691417 0 0 0 37.023438 56.083984 A 0.39691417 0.39691417 0 0 0 36.970703 56.083984 z M 58.302734 56.083984 A 0.39691417 0.39691417 0 0 0 58.001953 56.263672 L 55.224609 60.501953 A 0.39691417 0.39691417 0 0 0 55.556641 61.117188 L 57.9375 61.117188 L 57.9375 63.546875 A 0.39687449 0.39687449 0 0 0 58.333984 63.943359 A 0.39687449 0.39687449 0 0 0 58.730469 63.546875 L 58.730469 61.117188 L 61.111328 61.117188 A 0.39691417 0.39691417 0 0 0 61.443359 60.501953 L 58.666016 56.263672 A 0.39691417 0.39691417 0 0 0 58.355469 56.083984 A 0.39691417 0.39691417 0 0 0 58.302734 56.083984 z M 15.667969 57.205078 L 17.710938 60.322266 L 13.625 60.322266 L 15.667969 57.205078 z M 37 57.205078 L 39.042969 60.322266 L 34.957031 60.322266 L 37 57.205078 z M 58.333984 57.205078 L 60.376953 60.322266 L 56.291016 60.322266 L 58.333984 57.205078 z " />
</svg>

<svg xmlns="http://www.w3.org/2000/svg" width="64" height="64">
    <path fill="none" d="M0 0h64v64H0z"/>
    <path d="M4.97.084a.397.397 0 00-.302.18L1.891 4.502a.397.397 0 00.332.615h2.38v2.43A.397.397 0 005 7.943a.397.397 0 00.396-.396v-2.43H7.78a.397.397 0 00.332-.615L5.332.264a.397.397 0 00-.309-.18.397.397 0 00-.052 0zm21.333 0a.397.397 0 00-.301.18l-2.777 4.238a.397.397 0 00.332.615h2.38v2.43a.397.397 0 00.397.396.397.397 0 00.396-.396v-2.43h2.381a.397.397 0 00.332-.615L26.666.264a.397.397 0 00-.31-.18.397.397 0 00-.053 0zm21.334 0a.397.397 0 00-.301.18l-2.78 4.238a.397.397 0 00.333.615h2.38v2.43a.397.397 0 00.399.396.397.397 0 00.396-.396v-2.43h2.381a.397.397 0 00.332-.615L48 .264a.397.397 0 00-.31-.18.397.397 0 00-.053 0zM5 1.205l2.043 3.117H2.957L5 1.205zm21.334 0l2.043 3.117h-4.086l2.043-3.117zm21.334 0l2.043 3.117h-4.086l2.043-3.117zM15.637 8.084a.397.397 0 00-.301.18l-2.78 4.238a.397.397 0 00.333.615h2.38v2.43a.397.397 0 00.399.396.397.397 0 00.396-.396v-2.43h2.381a.397.397 0 00.332-.615L16 8.264a.397.397 0 00-.31-.18.397.397 0 00-.053 0zm21.334 0a.397.397 0 00-.303.18l-2.777 4.238a.397.397 0 00.332.615h2.38v2.43a.397.397 0 00.397.396.397.397 0 00.396-.396v-2.43h2.383a.397.397 0 00.332-.615l-2.779-4.238a.397.397 0 00-.309-.18.397.397 0 00-.052 0zm21.332 0a.397.397 0 00-.301.18l-2.777 4.238a.397.397 0 00.332.615h2.38v2.43a.397.397 0 00.397.396.397.397 0 00.396-.396v-2.43h2.381a.397.397 0 00.332-.615l-2.777-4.238a.397.397 0 00-.31-.18.397.397 0 00-.053 0zM15.668 9.205l2.043 3.117h-4.086l2.043-3.117zm21.332 0l2.043 3.117h-4.086L37 9.205zm21.334 0l2.043 3.117h-4.086l2.043-3.117zM4.971 16.084a.397.397 0 00-.303.18l-2.777 4.238a.397.397 0 00.332.615h2.38v2.43a.397.397 0 00.397.396.397.397 0 00.396-.396v-2.43H7.78a.397.397 0 00.332-.615l-2.779-4.238a.397.397 0 00-.309-.18.397.397 0 00-.052 0zm21.332 0a.397.397 0 00-.301.18l-2.777 4.238a.397.397 0 00.332.615h2.38v2.43a.397.397 0 00.397.396.397.397 0 00.396-.396v-2.43h2.381a.397.397 0 00.332-.615l-2.777-4.238a.397.397 0 00-.31-.18.397.397 0 00-.053 0zm21.334 0a.397.397 0 00-.301.18l-2.78 4.238a.397.397 0 00.333.615h2.38v2.43a.397.397 0 00.399.396.397.397 0 00.396-.396v-2.43h2.381a.397.397 0 00.332-.615L48 16.264a.397.397 0 00-.31-.18.397.397 0 00-.053 0zM5 17.205l2.043 3.117H2.957L5 17.205zm21.334 0l2.043 3.117h-4.086l2.043-3.117zm21.334 0l2.043 3.117h-4.086l2.043-3.117zm-32.031 6.879a.397.397 0 00-.301.18l-2.78 4.238a.397.397 0 00.333.615h2.38v2.43a.397.397 0 00.399.396.397.397 0 00.396-.396v-2.43h2.381a.397.397 0 00.332-.615L16 24.264a.397.397 0 00-.31-.18.397.397 0 00-.053 0zm21.334 0a.397.397 0 00-.303.18l-2.777 4.238a.397.397 0 00.332.615h2.38v2.43a.397.397 0 00.397.396.397.397 0 00.396-.396v-2.43h2.383a.397.397 0 00.332-.615l-2.779-4.238a.397.397 0 00-.309-.18.397.397 0 00-.052 0zm21.332 0a.397.397 0 00-.301.18l-2.777 4.238a.397.397 0 00.332.615h2.38v2.43a.397.397 0 00.397.396.397.397 0 00.396-.396v-2.43h2.381a.397.397 0 00.332-.615l-2.777-4.238a.397.397 0 00-.31-.18.397.397 0 00-.053 0zm-42.635 1.121l2.043 3.117h-4.086l2.043-3.117zm21.332 0l2.043 3.117h-4.086L37 25.205zm21.334 0l2.043 3.117h-4.086l2.043-3.117zM4.971 32.084a.397.397 0 00-.303.18l-2.777 4.238a.397.397 0 00.332.615h2.38v2.43a.397.397 0 00.397.396.397.397 0 00.396-.396v-2.43H7.78a.397.397 0 00.332-.615l-2.779-4.238a.397.397 0 00-.309-.18.397.397 0 00-.052 0zm21.332 0a.397.397 0 00-.301.18l-2.777 4.238a.397.397 0 00.332.615h2.38v2.43a.397.397 0 00.397.396.397.397 0 00.396-.396v-2.43h2.381a.397.397 0 00.332-.615l-2.777-4.238a.397.397 0 00-.31-.18.397.397 0 00-.053 0zm21.334 0a.397.397 0 00-.301.18l-2.78 4.238a.397.397 0 00.333.615h2.38v2.43a.397.397 0 00.399.396.397.397 0 00.396-.396v-2.43h2.381a.397.397 0 00.332-.615L48 32.264a.397.397 0 00-.31-.18.397.397 0 00-.053 0zM5 33.205l2.043 3.117H2.957L5 33.205zm21.334 0l2.043 3.117h-4.086l2.043-3.117zm21.334 0l2.043 3.117h-4.086l2.043-3.117zm-32.031 6.879a.397.397 0 00-.301.18l-2.78 4.238a.397.397 0 00.333.615h2.38v2.43a.397.397 0 00.399.396.397.397 0 00.396-.396v-2.43h2.381a.397.397 0 00.332-.615L16 40.264a.397.397 0 00-.31-.18.397.397 0 00-.053 0zm21.334 0a.397.397 0 00-.303.18l-2.777 4.238a.397.397 0 00.332.615h2.38v2.43a.397.397 0 00.397.396.397.397 0 00.396-.396v-2.43h2.383a.397.397 0 00.332-.615l-2.779-4.238a.397.397 0 00-.309-.18.397.397 0 00-.052 0zm21.332 0a.397.397 0 00-.301.18l-2.777 4.238a.397.397 0 00.332.615h2.38v2.43a.397.397 0 00.397.396.397.397 0 00.396-.396v-2.43h2.381a.397.397 0 00.332-.615l-2.777-4.238a.397.397 0 00-.31-.18.397.397 0 00-.053 0zm-42.635 1.121l2.043 3.117h-4.086l2.043-3.117zm21.332 0l2.043 3.117h-4.086L37 41.205zm21.334 0l2.043 3.117h-4.086l2.043-3.117zM4.971 48.084a.397.397 0 00-.303.18l-2.777 4.238a.397.397 0 00.332.615h2.38v2.43a.397.397 0 00.397.396.397.397 0 00.396-.396v-2.43H7.78a.397.397 0 00.332-.615l-2.779-4.238a.397.397 0 00-.309-.18.397.397 0 00-.052 0zm21.332 0a.397.397 0 00-.301.18l-2.777 4.238a.397.397 0 00.332.615h2.38v2.43a.397.397 0 00.397.396.397.397 0 00.396-.396v-2.43h2.381a.397.397 0 00.332-.615l-2.777-4.238a.397.397 0 00-.31-.18.397.397 0 00-.053 0zm21.334 0a.397.397 0 00-.301.18l-2.78 4.238a.397.397 0 00.333.615h2.38v2.43a.397.397 0 00.399.396.397.397 0 00.396-.396v-2.43h2.381a.397.397 0 00.332-.615L48 48.264a.397.397 0 00-.31-.18.397.397 0 00-.053 0zM5 49.205l2.043 3.117H2.957L5 49.205zm21.334 0l2.043 3.117h-4.086l2.043-3.117zm21.334 0l2.043 3.117h-4.086l2.043-3.117zm-32.031 6.879a.397.397 0 00-.301.18l-2.78 4.238a.397.397 0 00.333.615h2.38v2.43a.397.397 0 00.399.396.397.397 0 00.396-.396v-2.43h2.381a.397.397 0 00.332-.615L16 56.264a.397.397 0 00-.31-.18.397.397 0 00-.053 0zm21.334 0a.397.397 0 00-.303.18l-2.777 4.238a.397.397 0 00.332.615h2.38v2.43a.397.397 0 00.397.396.397.397 0 00.396-.396v-2.43h2.383a.397.397 0 00.332-.615l-2.779-4.238a.397.397 0 00-.309-.18.397.397 0 00-.052 0zm21.332 0a.397.397 0 00-.301.18l-2.777 4.238a.397.397 0 00.332.615h2.38v2.43a.397.397 0 00.397.396.397.397 0 00.396-.396v-2.43h2.381a.397.397 0 00.332-.615l-2.777-4.238a.397.397 0 00-.31-.18.397.397 0 00-.053 0zm-42.635 1.121l2.043 3.117h-4.086l2.043-3.117zm21.332 0l2.043 3.117h-4.086L37 57.205zm21.334 0l2.043 3.117h-4.086l2.043-3.117z" color="#000" fill-rule="evenodd"/>
</svg>
